!!!SOCIAL_FUNCTION:	hunting songs
!!!PDT:	1929
!!!OTL: No_160_Song_for_Success_in_Hunting.krn
!!!REG: Southwest
!!!LANG: Non-Tone
!!!LING_GROUP: Uto-Aztecan
**kern
*staff1
=1-
*clefF4
*k[b-]
*M3/4
8F\L
8F\J
8F\L
8F\J
8A\L
8A\J
=2||
*M2/4
4.G\
8G\
=3||
*M3/4
4A\
8A\L
8A\J
8G\L
8G\J
=4||
*M2/4
4.F\
8D\
=5
4G\
8G\L
8G\J
=6
4G\
8F\L
8F\J
=7
4D\
8C/L
8C/J
=8
8C/L
8C/J
8C/L
8C/J
=9
4C/
8r
8F\
=10
4.F\
8C/
=11
8F\L
8F\J
4F\
=12
8F\L
8F\J
4F\
=13
8F\L
8F\J
4F\
=14
8F\L
8F\J
4F\
==
*-
